icons/lines/omega-square-one.svg

<svg xmlns="http://www.w3.org/2000/svg" width="24" height="24" viewBox="0 0 24 24" fill="none" stroke="currentColor" stroke-width="2" stroke-linecap="round" stroke-linejoin="round" >
  <path d="M22 15V9C22 4 20 2 15 2H9C4 2 2 4 2 9V15C2 20 4 22 9 22H15C20 22 22 20 22 15Z"/>
  <path d="M17 16.75H13.9L15.52 14.96C16.32 14.07 16.76 12.94 16.76 11.78C16.76 10.58 16.26 9.43002 15.37 8.58002C14.48 7.73002 13.27 7.25 12 7.25C10.74 7.25 9.53 7.73002 8.63 8.58002C7.74 9.43002 7.23999 10.58 7.23999 11.78C7.23999 12.95 7.67998 14.08 8.47998 14.96L10.1 16.75H7"/>
  </svg>

<svg xmlns="http://www.w3.org/2000/svg" width="24" height="24" viewBox="0 0 24 24" fill="none" stroke="currentColor" stroke-width="2" stroke-linecap="round" stroke-linejoin="round">
  <path d="M17 16.75h-3.1l1.62-1.79a4.76 4.76 0 0 0 1.24-3.18 4.42 4.42 0 0 0-1.39-3.2A4.88 4.88 0 0 0 12 7.25a5 5 0 0 0-3.37 1.33 4.42 4.42 0 0 0-1.39 3.2 4.72 4.72 0 0 0 1.24 3.18l1.62 1.79H7" />
  <path d="M22 9c0-5-2-7-7-7H9C4 2 2 4 2 9v6c0 5 2 7 7 7h6c5 0 7-2 7-7z" />
</svg>
